**kern	**kern	**dynam
*part1	*part1	*part1
*staff2	*staff1	*
*I"Piano	*	*
*clefF4	*clefG2	*
*k[b-e-a-]	*k[b-e-a-]	*
=1	=1	=1
[4.AA- 4.En	[4.c 4.b- [4.cc	.
=	=	=
4.AA-] 4.F	4.c] 4.a- 4.cc]	<
=	=	=
*^	*	*
!	!	!LO:TX:a:i:t=ritard.	!
4c	4.A-	4f 4cc 4ff	[
8c-X	.	8e- 8cc-X 8ee-	.
*v	*v	*	*
=	=	=
!	!	!LO:DY:a
[4.A- [4.B- [4.f	[4.dn [4.b- [4.ddn	> >
=	=	=
4A-;] 4B-] 4f]	4d;] 4b-] 4dd]	.
8r	8r	] ]
=	=	=
4G' 4B-	4e-' 4g 4b-	<
8r	8r	.
=	=	=
4F' 4B-	4d' 4a- 4b-	.
8r	8r	[
=	=	=
4E-' 4B-	4e-' 4g 4b-	.
8r	8r	.
=	=	=
4GG' 4E- 4G	4B-' 4e- 4b-	.
8r	8r	.
=	=	=
4AA-' 4A-	4c' 4e- 4a- 4cc	.
8r	8r	.
=	=	=
4BB-' 4E- 4B-	4B-' 4e- 4g 4b-	.
8r	8r	.
=	=	=
*-	*-	*-
!!!system-decoration: {(s1,s2)}
